img/Phone.svg

<svg width="23" height="20" viewBox="0 0 23 20" fill="none" xmlns="http://www.w3.org/2000/svg">
<g filter="url(#filter0_d)">
<path d="M12.4584 4.66657C14.4737 4.66657 15.3334 5.5262 15.3334 7.54157H17.25C17.25 4.45095 15.549 2.7499 12.4584 2.7499V4.66657ZM15.7378 9.88278C15.5536 9.71541 15.3116 9.62615 15.0629 9.63383C14.8142 9.64152 14.5782 9.74556 14.4047 9.92399L12.1114 12.2824C11.5594 12.177 10.4497 11.8311 9.30736 10.6916C8.16503 9.54832 7.81907 8.4357 7.71653 7.88753L10.0731 5.59328C10.2517 5.41994 10.3559 5.1839 10.3636 4.9351C10.3713 4.68631 10.2819 4.44428 10.1143 4.26024L6.57323 0.366529C6.40557 0.181912 6.17254 0.0699284 5.92363 0.0543607C5.67473 0.038793 5.42956 0.120868 5.24019 0.283154L3.16061 2.06661C2.99492 2.2329 2.89603 2.45421 2.88269 2.68857C2.86832 2.92815 2.59423 8.60341 6.9949 13.006C10.834 16.8441 15.6429 17.1249 16.9673 17.1249C17.1609 17.1249 17.2797 17.1192 17.3114 17.1172C17.5457 17.1041 17.7669 17.0048 17.9324 16.8384L19.7149 14.7578C19.8773 14.5686 19.9595 14.3235 19.9441 14.0746C19.9287 13.8257 19.8169 13.5926 19.6324 13.4248L15.7378 9.88278Z" fill="#BDBDBD"/>
</g>
<defs>
<filter id="filter0_d" x="-1.12524" y="0.0524902" width="25.0712" height="25.0724" filterUnits="userSpaceOnUse" color-interpolation-filters="sRGB">
<feFlood flood-opacity="0" result="BackgroundImageFix"/>
<feColorMatrix in="SourceAlpha" type="matrix" values="0 0 0 0 0 0 0 0 0 0 0 0 0 0 0 0 0 0 127 0"/>
<feOffset dy="4"/>
<feGaussianBlur stdDeviation="2"/>
<feColorMatrix type="matrix" values="0 0 0 0 0 0 0 0 0 0 0 0 0 0 0 0 0 0 0.25 0"/>
<feBlend mode="normal" in2="BackgroundImageFix" result="effect1_dropShadow"/>
<feBlend mode="normal" in="SourceGraphic" in2="effect1_dropShadow" result="shape"/>
</filter>
</defs>
</svg>

<svg width="23" height="20" fill="none" xmlns="http://www.w3.org/2000/svg"><g filter="url(#prefix__a)"><path d="M12.458 4.667c2.016 0 2.875.86 2.875 2.875h1.917c0-3.091-1.701-4.792-4.792-4.792v1.917zm3.28 5.216a.96.96 0 0 0-1.333.041l-2.294 2.358c-.552-.105-1.661-.45-2.804-1.59-1.142-1.144-1.488-2.256-1.59-2.804l2.356-2.295a.959.959 0 0 0 .041-1.333L6.574.367A.958.958 0 0 0 5.24.283L3.16 2.067a.958.958 0 0 0-.277.622c-.015.24-.289 5.914 4.112 10.317 3.839 3.838 8.648 4.119 9.972 4.119.194 0 .313-.006.344-.008a.95.95 0 0 0 .621-.279l1.783-2.08a.958.958 0 0 0-.083-1.333l-3.894-3.542z" fill="#BDBDBD"/></g><defs><filter id="prefix__a" x="-1.125" y=".052" width="25.071" height="25.072" filterUnits="userSpaceOnUse" color-interpolation-filters="sRGB"><feFlood flood-opacity="0" result="BackgroundImageFix"/><feColorMatrix in="SourceAlpha" values="0 0 0 0 0 0 0 0 0 0 0 0 0 0 0 0 0 0 127 0"/><feOffset dy="4"/><feGaussianBlur stdDeviation="2"/><feColorMatrix values="0 0 0 0 0 0 0 0 0 0 0 0 0 0 0 0 0 0 0.25 0"/><feBlend in2="BackgroundImageFix" result="effect1_dropShadow"/><feBlend in="SourceGraphic" in2="effect1_dropShadow" result="shape"/></filter></defs></svg>
